lib/logo_tmp/nrk-logo-nrk-p1-with-bg.svg

<svg width="75" height="28" viewBox="0 0 75 28" fill="none" xmlns="http://www.w3.org/2000/svg">
<rect width="74.6667" height="28" fill="#114F9D"/>
<path d="M6.66663 21V7.00123H11.26V21H6.66663ZM17.5094 9.2292L20.151 21H15.124L11.9697 7.00123H14.7892C15.4357 6.99284 16.063 7.22075 16.5535 7.64208C17.0449 8.04574 17.3824 8.60611 17.5094 9.2292ZM20.8411 21V7.00123H25.4345V21H20.8411ZM28.9038 12.3247C28.4089 12.3296 27.9218 12.2001 27.4946 11.9501C27.073 11.7064 26.7229 11.3562 26.4793 10.9347C26.229 10.5073 26.0995 10.0202 26.1044 9.525C26.0988 9.03283 26.2284 8.54857 26.4793 8.12512C26.7255 7.70811 27.0752 7.36174 27.4946 7.11957C27.922 6.86988 28.4089 6.74039 28.9038 6.74491C29.3959 6.73961 29.8799 6.86921 30.3035 7.11957C30.7187 7.36386 31.0647 7.70995 31.309 8.12512C31.5596 8.54869 31.6892 9.03287 31.6838 9.525C31.6884 10.0201 31.5589 10.5072 31.309 10.9347C31.0673 11.3544 30.7209 11.7043 30.3035 11.9501C29.8799 12.2009 29.3955 12.3306 28.9032 12.3247H28.9038ZM32.3935 21V7.00123H36.9873V21H32.3935ZM42.8027 14.6512C42.8156 14.6648 42.9141 14.8258 43.0983 15.1343C43.2826 15.4427 43.5224 15.8371 43.8179 16.3173C44.1136 16.7973 44.4257 17.3066 44.754 17.8453C45.0824 18.384 45.3913 18.8934 45.6809 19.3734C45.9694 19.8534 46.298 20.3955 46.6666 21H41.6198C41.3041 20.4873 41.0181 20.024 40.7618 19.61C40.5056 19.1959 40.2331 18.749 39.9444 18.2692C39.6551 17.7899 39.369 17.3233 39.0862 16.8693C38.8034 16.4154 38.5604 16.0178 38.3571 15.6765C38.153 15.335 38.0116 15.1049 37.9329 14.9864C37.7379 14.6923 37.6225 14.3526 37.5981 14.0006C37.6176 13.6627 37.7263 13.3361 37.9132 13.0539C37.992 12.9225 38.1366 12.6891 38.3469 12.3539C38.5572 12.0188 38.8036 11.6212 39.0862 11.1611C39.3688 10.7011 39.6549 10.2312 39.9444 9.7514C40.234 9.27163 40.5064 8.8214 40.7618 8.40078C41.0186 7.9806 41.3046 7.51398 41.6198 7.00091H46.6666L42.7629 13.3694C42.6421 13.5585 42.574 13.7764 42.5657 14.0006C42.5787 14.236 42.6609 14.4623 42.8019 14.6512H42.8027Z" fill="white"/>
<path d="M61.5028 8.8155C61.2605 8.44151 60.9494 8.11691 60.586 7.85897C60.181 7.57545 59.7312 7.36215 59.2553 7.22806C58.6776 7.0686 58.0801 6.99238 57.4809 7.00167H52V20.9996H54.0701V15.9721H57.6386C58.444 15.9844 59.2388 15.7874 59.9453 15.4004C60.6221 15.0252 61.1843 14.4731 61.5718 13.8031C61.987 13.0638 62.1948 12.2259 62.1731 11.3782C62.1749 10.92 62.1219 10.4633 62.0154 10.0178C61.913 9.59115 61.7397 9.18476 61.5028 8.8155ZM59.6693 13.0641C59.4044 13.4799 59.0143 13.8009 58.5553 13.9809C57.9984 14.1917 57.4058 14.2921 56.8105 14.2767H54.0701V8.7169H57.0866C57.6627 8.69514 58.2362 8.80634 58.7624 9.04188C59.181 9.24414 59.5233 9.57601 59.7383 9.98822C59.9661 10.4506 60.0778 10.9615 60.0636 11.4767C60.0864 12.0327 59.9496 12.5835 59.6693 13.0641Z" fill="#B2CFF5"/>
<path d="M67.2794 7.00168C66.9638 7.1594 66.6647 7.31385 66.3821 7.465C66.0995 7.61615 65.8236 7.75742 65.5543 7.88885C65.2845 8.02029 65.0116 8.15175 64.7358 8.28318C64.46 8.41462 64.1774 8.5329 63.8881 8.63805C63.5989 8.74363 63.2902 8.84867 62.9618 8.95316L63.3952 10.629C63.7895 10.5107 64.1476 10.3924 64.4697 10.2741C64.7851 10.1587 65.0944 10.0271 65.3963 9.8798C65.6923 9.73522 65.988 9.57748 66.2835 9.40661L66.2937 9.40072V20.9999H68.3438V7.002L67.2794 7.00168Z" fill="#B2CFF5"/>
</svg>

<svg xmlns="http://www.w3.org/2000/svg" viewBox="0 0 75 28"><path fill="#114F9D" d="M0 0h74.667v28H0z"/><path fill="#fff" d="M6.667 21V7.001h4.593V21H6.667ZM17.509 9.23 20.151 21h-5.027L11.97 7.001h2.82a2.655 2.655 0 0 1 1.764.641c.49.404.828.964.955 1.587ZM20.841 21V7.001h4.593V21h-4.593Zm8.063-8.675a2.779 2.779 0 0 1-2.425-1.39 2.736 2.736 0 0 1-.375-1.41 2.686 2.686 0 0 1 .375-1.4 2.812 2.812 0 0 1 3.825-1.005c.415.244.76.59 1.005 1.005.25.424.38.908.375 1.4.004.495-.125.982-.375 1.41a2.8 2.8 0 0 1-1.006 1.015c-.423.25-.908.38-1.4.375ZM32.394 21V7.001h4.593V21h-4.593Zm10.409-6.349c.013.014.111.175.295.483.185.309.424.703.72 1.183a373.133 373.133 0 0 1 1.863 3.056c.288.48.617 1.022.986 1.627H41.62l-.858-1.39a127.3 127.3 0 0 1-.818-1.34c-.289-.48-.575-.947-.858-1.4a71.148 71.148 0 0 1-.729-1.194 20.758 20.758 0 0 0-.424-.69 2.04 2.04 0 0 1-.335-.985c.02-.338.128-.665.315-.947.079-.132.224-.365.434-.7a206.222 206.222 0 0 0 1.598-2.602c.289-.48.561-.93.817-1.351L41.62 7h5.047l-3.904 6.368c-.12.19-.189.407-.197.632.013.235.095.461.236.65Z"/><path fill="#B2CFF5" d="M61.503 8.816a3.52 3.52 0 0 0-.917-.957 4.402 4.402 0 0 0-1.33-.63 6.302 6.302 0 0 0-1.775-.227H52V21h2.07v-5.028h3.569c.805.012 1.6-.185 2.306-.572a4.271 4.271 0 0 0 1.627-1.597c.415-.74.623-1.577.601-2.425a5.754 5.754 0 0 0-.158-1.36 3.921 3.921 0 0 0-.512-1.203Zm-1.834 4.248a2.33 2.33 0 0 1-1.114.917c-.557.21-1.15.311-1.745.296h-2.74v-5.56h3.017c.576-.022 1.15.09 1.675.325.419.202.761.534.976.946.228.463.34.973.326 1.489a2.914 2.914 0 0 1-.395 1.587ZM67.28 7.002c-.316.157-.615.312-.898.463-.282.151-.558.292-.828.424-.27.131-.542.263-.818.394a9.56 9.56 0 0 1-.848.355c-.29.106-.598.21-.926.315l.433 1.676c.394-.118.753-.237 1.075-.355.315-.115.624-.247.926-.394.296-.145.592-.303.888-.473l.01-.006V21h2.05V7.002h-1.065Z"/></svg>
